X: 28656
T: Musical Priest, The
R: reel
M: 4/4
K: Gminor
|:GF|DGG^F GABG|AG=Fd cAGF|DGG^F GABG|AG=FA G2:|
|:GA|B2BA BdcB|AF cF dFcF|BAGA Bcdg|fdcA G2:|
GA|BG~G2 gfdg|fdcA FGAc|BG~G2 gfdg|fdcA G2GA|
BG[GG,]G gfdg|fdcA FGAc|BA[GG,]A Bcdg|fdcA G2||

